Papirus/64x64/apps/QOwnNotes.svg

<svg xmlns="http://www.w3.org/2000/svg" width="64" height="64" version="1">
 <defs>
  <clipPath id="clipPath4483" clipPathUnits="userSpaceOnUse">
   <path style="fill:#fecd38" d="m 91.5,254 c -0.831,0 -1.5,0.669 -1.5,1.5 l 0,25 c 0,0.831 0.669,1.5 1.5,1.5 l 16.5,0 10,-10 0,-16.5 c 0,-0.831 -0.669,-1.5 -1.5,-1.5 z"/>
  </clipPath>
 </defs>
 <path style="opacity:0.2" d="m 4,39 20,20 33,0 c 1.662,0 3,-1.338 3,-3 l 0,2 c 0,1.662 -1.338,3 -3,3 L 24,61 4,41 4,39 Z"/>
 <path style="fill:#303d75" d="m 56,4 c 0,0 4,0 4,4 l 0,48 c 0,4 -4,4 -4,4 L 24,60 4,40 4,8 C 4,4 8,4 8,4 Z"/>
 <path style="opacity:0.2" d="m 118,272 -8.5,0 c -0.82843,0 -1.5,0.67158 -1.5,1.5 l 0,8.5 z" clip-path="url(#clipPath4483)" transform="matrix(-2,0,0,2,240,-504)"/>
 <path style="fill:#44559e" d="m 4,40 17,0 c 1.656,0 3,1.344 3,3 l 0,17 z"/>
 <path style="opacity:0.1;fill:#ffffff" d="M 4 40 L 5 41 L 21 41 C 22.656 41 24 42.344 24 44 L 24 43 C 24 41.344 22.656 40 21 40 L 4 40 z"/>
 <path style="opacity:0.2" d="m 32,16 a 10,10 0 0 0 -0.875,0.04297 9.3333346,9.3333346 0 0 0 -0.195312,0.02344 A 10,10 0 0 0 22,26 a 10,10 0 0 0 0.0039,0.07422 A 7,7 0 0 0 16,33 7,7 0 0 0 16.003906,33.171875 6.6666676,6.6666676 0 0 0 16,33.332031 6.6666676,6.6666676 0 0 0 22.667969,40 L 23,40 40,40 A 8.000001,8.000001 0 0 0 48,32 8.000001,8.000001 0 0 0 41.839844,24.234375 10,10 0 0 0 33.359375,16.105469 9.3333346,9.3333346 0 0 0 33.230469,16.085938 10,10 0 0 0 32.621094,16.03125 9.3333346,9.3333346 0 0 0 32,16 Z m -0.01953,3.001953 c 0.130237,0.0029 0.260806,0.0087 0.390625,0.01953 a 3.0003,3.0003 0 0 0 0.07422,0.0039 c 0.137299,0.0081 0.273577,0.02094 0.410157,0.03711 0.0052,6.18e-4 0.0104,0.0013 0.01563,0.002 0.006,9.37e-4 0.01156,0.003 0.01758,0.0039 a 3.0003,3.0003 0 0 0 0.0625,0.0098 c 3.013418,0.413721 5.394687,2.696241 5.935547,5.689453 a 3.0003,3.0003 0 0 0 2.263672,2.386719 C 43.416481,27.689736 44.992407,29.675784 45,32.003906 44.99789,34.798954 42.795617,37 40,37 l -17,0 -0.332031,0 C 20.608131,37.000402 19.00169,35.395183 19,33.335938 l 0,-0.0039 c 3.82e-4,-0.01697 0.0013,-0.03382 0.002,-0.05078 a 3.0003,3.0003 0 0 0 0,-0.214844 c -7.56e-4,-0.02161 -0.0015,-0.04284 -0.002,-0.06445 l 0,-0.0039 c 0.0028,-2.009048 1.442573,-3.669153 3.431641,-3.955078 A 3.0003,3.0003 0 0 0 25,26.001953 l 0,-0.0039 c 0.0052,-3.596831 2.673366,-6.564194 6.25,-6.949219 a 3.0003,3.0003 0 0 0 0.06836,-0.0078 c 0.03637,-0.0048 0.07293,-0.0096 0.109375,-0.01367 0.183564,-0.01643 0.36845,-0.0235 0.552735,-0.02539 z"/>
 <path style="fill:#5d8cb9" d="M 32 15 A 10 10 0 0 0 31.125 15.042969 A 9.3333346 9.3333346 0 0 0 30.929688 15.066406 A 10 10 0 0 0 22 25 A 10 10 0 0 0 22.003906 25.074219 A 7 7 0 0 0 16 32 A 7 7 0 0 0 16.003906 32.171875 A 6.6666676 6.6666676 0 0 0 16 32.332031 A 6.6666676 6.6666676 0 0 0 22.667969 39 L 23 39 L 40 39 A 8.000001 8.000001 0 0 0 48 31 A 8.000001 8.000001 0 0 0 41.839844 23.234375 A 10 10 0 0 0 33.359375 15.105469 A 9.3333346 9.3333346 0 0 0 33.230469 15.085938 A 10 10 0 0 0 32.621094 15.03125 A 9.3333346 9.3333346 0 0 0 32 15 z M 31.980469 18.001953 C 32.110706 18.004853 32.241275 18.010654 32.371094 18.021484 A 3.0003 3.0003 0 0 0 32.445312 18.025391 C 32.582611 18.033491 32.718889 18.04633 32.855469 18.0625 C 32.860669 18.063118 32.865874 18.063753 32.871094 18.064453 C 32.877094 18.06539 32.882652 18.067459 32.888672 18.068359 A 3.0003 3.0003 0 0 0 32.951172 18.078125 C 35.96459 18.491846 38.345859 20.774366 38.886719 23.767578 A 3.0003 3.0003 0 0 0 41.150391 26.154297 C 43.416481 26.689736 44.992407 28.675784 45 31.003906 C 44.99789 33.798954 42.795617 36 40 36 L 23 36 L 22.667969 36 C 20.608131 36.000402 19.00169 34.395183 19 32.335938 L 19 32.332031 C 19.000382 32.315061 19.001253 32.29821 19.001953 32.28125 A 3.0003 3.0003 0 0 0 19.001953 32.066406 C 19.001197 32.044796 19.0005 32.023563 19 32.001953 L 19 31.998047 C 19.0028 29.988999 20.442573 28.328894 22.431641 28.042969 A 3.0003 3.0003 0 0 0 25 25.001953 L 25 24.998047 C 25.0052 21.401216 27.673366 18.433853 31.25 18.048828 A 3.0003 3.0003 0 0 0 31.318359 18.041016 C 31.354729 18.036216 31.391289 18.031414 31.427734 18.027344 C 31.611298 18.010914 31.796184 18.003843 31.980469 18.001953 z"/>
 <path style="opacity:0.1;fill:#ffffff" d="M 8 4 C 8 4 4 4 4 8 L 4 9 C 4 5 8 5 8 5 L 56 5 C 56 5 60 5 60 9 L 60 8 C 60 4 56 4 56 4 L 8 4 z"/>
</svg>

<svg xmlns="http://www.w3.org/2000/svg" width="64" height="64" version="1">
 <path style="opacity:0.2" d="M 56,5 C 56,5 60,5 60,9 V 57 C 60,61 56,61 56,61 H 24 L 4,41 V 9 C 4,5 8,5 8,5 Z"/>
 <path style="fill:#303d75" d="M 56,4 C 56,4 60,4 60,8 V 56 C 60,60 56,60 56,60 H 24 L 4,40 V 8 C 4,4 8,4 8,4 Z"/>
 <path style="fill:#44559e" d="M 4,40 H 21 C 22.656,40 24,41.344 24,43 V 60 Z"/>
 <path style="opacity:0.1;fill:#ffffff" d="M 4,40 5,41 H 21 C 22.656,41 24,42.344 24,44 V 43 C 24,41.344 22.656,40 21,40 Z"/>
 <path style="opacity:0.2" d="M 32,16 A 10,10 0 0 0 31.125,16.043 9.3333,9.3333 0 0 0 30.93,16.066 10,10 0 0 0 22,26 10,10 0 0 0 22.004,26.074 7,7 0 0 0 16,33 7,7 0 0 0 16.004,33.172 6.6667,6.6667 0 0 0 16,33.332 6.6667,6.6667 0 0 0 22.668,40 H 23 40 A 8,8 0 0 0 48,32 8,8 0 0 0 41.84,24.234 10,10 0 0 0 33.359,16.105 9.3333,9.3333 0 0 0 33.23,16.086 10,10 0 0 0 32.621,16.031 9.3333,9.3333 0 0 0 32,16 Z M 31.98,19.002 C 32.111,19.005 32.241,19.011 32.371,19.021 A 3.0003,3.0003 0 0 0 32.445,19.025 C 32.583,19.033 32.719,19.046 32.855,19.062 32.861,19.063 32.866,19.064 32.871,19.064 32.877,19.065 32.883,19.067 32.889,19.068 A 3.0003,3.0003 0 0 0 32.951,19.078 C 35.965,19.492 38.346,21.774 38.887,24.768 A 3.0003,3.0003 0 0 0 41.15,27.154 C 43.416,27.69 44.992,29.676 45,32.004 44.998,34.799 42.796,37 40,37 H 23 22.668 C 20.608,37 19.002,35.395 19,33.336 V 33.332 C 19,33.315 19.001,33.298 19.002,33.281 A 3.0003,3.0003 0 0 0 19.002,33.066 C 19.001,33.045 19,33.024 19,33.002 V 32.998 C 19.003,30.989 20.443,29.329 22.432,29.043 A 3.0003,3.0003 0 0 0 25,26.002 V 25.998 C 25.005,22.401 27.673,19.434 31.25,19.049 A 3.0003,3.0003 0 0 0 31.318,19.041 C 31.355,19.036 31.391,19.031 31.428,19.027 31.611,19.011 31.796,19.004 31.98,19.002 Z"/>
 <path style="fill:#5d8cb9" d="M 32,15 A 10,10 0 0 0 31.125,15.043 9.3333,9.3333 0 0 0 30.93,15.066 10,10 0 0 0 22,25 10,10 0 0 0 22.004,25.074 7,7 0 0 0 16,32 7,7 0 0 0 16.004,32.172 6.6667,6.6667 0 0 0 16,32.332 6.6667,6.6667 0 0 0 22.668,39 H 23 40 A 8,8 0 0 0 48,31 8,8 0 0 0 41.84,23.234 10,10 0 0 0 33.359,15.105 9.3333,9.3333 0 0 0 33.23,15.086 10,10 0 0 0 32.621,15.031 9.3333,9.3333 0 0 0 32,15 Z M 31.98,18.002 C 32.111,18.005 32.241,18.011 32.371,18.021 A 3.0003,3.0003 0 0 0 32.445,18.025 C 32.583,18.033 32.719,18.046 32.855,18.062 32.861,18.063 32.866,18.064 32.871,18.064 32.877,18.065 32.883,18.067 32.889,18.068 A 3.0003,3.0003 0 0 0 32.951,18.078 C 35.965,18.492 38.346,20.774 38.887,23.768 A 3.0003,3.0003 0 0 0 41.15,26.154 C 43.416,26.69 44.992,28.676 45,31.004 44.998,33.799 42.796,36 40,36 H 23 22.668 C 20.608,36 19.002,34.395 19,32.336 V 32.332 C 19,32.315 19.001,32.298 19.002,32.281 A 3.0003,3.0003 0 0 0 19.002,32.066 C 19.001,32.045 19,32.024 19,32.002 V 31.998 C 19.003,29.989 20.443,28.329 22.432,28.043 A 3.0003,3.0003 0 0 0 25,25.002 V 24.998 C 25.005,21.401 27.673,18.434 31.25,18.049 A 3.0003,3.0003 0 0 0 31.318,18.041 C 31.355,18.036 31.391,18.031 31.428,18.027 31.611,18.011 31.796,18.004 31.98,18.002 Z"/>
 <path style="opacity:0.1;fill:#ffffff" d="M 8,4 C 8,4 4,4 4,8 V 9 C 4,5 8,5 8,5 H 56 C 56,5 60,5 60,9 V 8 C 60,4 56,4 56,4 Z"/>
</svg>
